fs/news_24_regular.svg

<svg viewBox="0 0 24 24" fill="none" xmlns="http://www.w3.org/2000/svg" height="1em" width="1em">
  <path d="M18.75 20H5.25C3.51697 20 2.10075 18.6435 2.00514 16.9344L2 16.75V6.25C2 5.05914 2.92516 4.08436 4.09595 4.00519L4.25 4H16.75C17.9409 4 18.9156 4.92516 18.9948 6.09595L19 6.25V7H19.75C20.9409 7 21.9156 7.92516 21.9948 9.09595L22 9.25V16.75C22 18.483 20.6435 19.8992 18.9344 19.9949L18.75 20H5.25H18.75ZM5.25 18.5H18.75C19.6682 18.5 20.4212 17.7929 20.4942 16.8935L20.5 16.75V9.25C20.5 8.8703 20.2178 8.55651 19.8518 8.50685L19.75 8.5H19V16.25C19 16.6297 18.7178 16.9435 18.3518 16.9932L18.25 17C17.8703 17 17.5565 16.7178 17.5068 16.3518L17.5 16.25V6.25C17.5 5.8703 17.2178 5.55651 16.8518 5.50685L16.75 5.5H4.25C3.8703 5.5 3.55651 5.78215 3.50685 6.14823L3.5 6.25V16.75C3.5 17.6682 4.20711 18.4212 5.10647 18.4942L5.25 18.5H18.75H5.25ZM12.246 14.5H15.2522C15.6665 14.5 16.0022 14.8358 16.0022 15.25C16.0022 15.6297 15.7201 15.9435 15.354 15.9932L15.2522 16H12.246C11.8318 16 11.496 15.6642 11.496 15.25C11.496 14.8703 11.7782 14.5565 12.1442 14.5068L12.246 14.5H15.2522H12.246ZM9.24328 11.0045C9.6575 11.0045 9.99328 11.3403 9.99328 11.7545V15.25C9.99328 15.6642 9.6575 16 9.24328 16H5.74776C5.33355 16 4.99776 15.6642 4.99776 15.25V11.7545C4.99776 11.3403 5.33355 11.0045 5.74776 11.0045H9.24328ZM8.49328 12.5045H6.49776V14.5H8.49328V12.5045ZM12.246 11.0045H15.2522C15.6665 11.0045 16.0022 11.3403 16.0022 11.7545C16.0022 12.1342 15.7201 12.448 15.354 12.4976L15.2522 12.5045H12.246C11.8318 12.5045 11.496 12.1687 11.496 11.7545C11.496 11.3748 11.7782 11.061 12.1442 11.0113L12.246 11.0045H15.2522H12.246ZM5.74776 7.50247H15.2522C15.6665 7.50247 16.0022 7.83826 16.0022 8.25247C16.0022 8.63217 15.7201 8.94596 15.354 8.99563L15.2522 9.00247H5.74776C5.33355 9.00247 4.99776 8.66669 4.99776 8.25247C4.99776 7.87278 5.27991 7.55898 5.64599 7.50932L5.74776 7.50247H15.2522H5.74776Z" fill="#212121"/>
</svg>

<svg viewBox="0 0 24 24" fill="none" xmlns="http://www.w3.org/2000/svg" height="1em" width="1em">
  <path d="M18.75 20H5.25a3.25 3.25 0 0 1-3.245-3.066L2 16.75V6.25a2.25 2.25 0 0 1 2.096-2.245L4.25 4h12.5a2.25 2.25 0 0 1 2.245 2.096L19 6.25V7h.75a2.25 2.25 0 0 1 2.245 2.096L22 9.25v7.5a3.25 3.25 0 0 1-3.066 3.245L18.75 20H5.25h13.5Zm-13.5-1.5h13.5a1.75 1.75 0 0 0 1.744-1.607l.006-.143v-7.5a.75.75 0 0 0-.648-.743L19.75 8.5H19v7.75a.75.75 0 0 1-.648.743L18.25 17a.75.75 0 0 1-.743-.648l-.007-.102v-10a.75.75 0 0 0-.648-.743L16.75 5.5H4.25a.75.75 0 0 0-.743.648L3.5 6.25v10.5a1.75 1.75 0 0 0 1.606 1.744l.144.006h13.5-13.5Zm6.996-4h3.006a.75.75 0 0 1 .102 1.493l-.102.007h-3.006a.75.75 0 0 1-.102-1.493l.102-.007h3.006-3.006Zm-3.003-3.495a.75.75 0 0 1 .75.75v3.495a.75.75 0 0 1-.75.75H5.748a.75.75 0 0 1-.75-.75v-3.495a.75.75 0 0 1 .75-.75h3.495Zm-.75 1.5H6.498V14.5h1.995v-1.995Zm3.753-1.5h3.006a.75.75 0 0 1 .102 1.493l-.102.007h-3.006a.75.75 0 0 1-.102-1.494l.102-.006h3.006-3.006ZM5.748 7.502h9.504a.75.75 0 0 1 .102 1.494l-.102.006H5.748a.75.75 0 0 1-.102-1.493l.102-.007h9.504-9.504Z" fill="#212121"/>
</svg>
